static/assets/img/icons/theme/cooking/cooking-book.svg

<svg height="24" viewBox="0 0 24 24" width="24" xmlns="http://www.w3.org/2000/svg"><g fill="none" fill-rule="evenodd"><path d="m0 0h24v24h-24z" opacity="0"/><path d="m9.35 11.5877565c-.77635225-.2089613-1.35-.9459497-1.35-1.82305062 0-1.03959482.80588745-1.88235294 1.8-1.88235294.05099799 0 .10150064.00221788.15142455.00656644.36887405-1.10008036 1.37063345-1.88891938 2.54857545-1.88891938s2.1797014.78883902 2.5485755 1.88891938c.0499239-.00434856.1004265-.00656644.1514245-.00656644.9941125 0 1.8.84275812 1.8 1.88235294 0 .87710092-.5736478 1.61408932-1.35 1.82305062v1.9416553c0 .2598987-.2014719.4705882-.45.4705882h-5.4c-.24852814 0-.45-.2106895-.45-.4705882z" fill="#000" opacity=".3"/></g></svg>

<svg width="24px" height="24px" viewBox="0 0 24 24" version="1.1" xmlns="http://www.w3.org/2000/svg" xmlns:xlink="http://www.w3.org/1999/xlink">
    <title>Icon For Cooking-book</title>
    <defs>
        <path d="M20,18 L8,18 C7.44771525,18 7,18.4477153 7,19 C7,19.5522847 7.44771525,20 8,20 L20,20 L20,21 C20,21.626904 19.6418278,22 19,22 L7,22 C5.2536027,22 4,20.6941639 4,19 L4,5 C4,3.30583615 5.2536027,2 7,2 L19,2 C19.6418278,2 20,2.37309604 20,3 L20,18 Z"></path>
    </defs>
    <g stroke="none" stroke-width="1" fill="none" fill-rule="evenodd">
        <rect opacity="0" x="0" y="0" width="24" height="24"></rect>
        <mask fill="white">
            <use xlink:href="#path-1"></use>
        </mask>
        <use fill="#000000" fill-rule="nonzero" opacity="0.3" xlink:href="#path-1"></use>
        <path d="M9.35,11.5877565 C8.57364775,11.3787952 8,10.6418068 8,9.76470588 C8,8.72511106 8.80588745,7.88235294 9.8,7.88235294 C9.85099799,7.88235294 9.90150064,7.88457082 9.95142455,7.88891938 C10.3202986,6.78883902 11.322058,6 12.5,6 C13.677942,6 14.6797014,6.78883902 15.0485755,7.88891938 C15.0984994,7.88457082 15.149002,7.88235294 15.2,7.88235294 C16.1941125,7.88235294 17,8.72511106 17,9.76470588 C17,10.6418068 16.4263522,11.3787952 15.65,11.5877565 L15.65,13.5294118 C15.65,13.7893105 15.4485281,14 15.2,14 L9.8,14 C9.55147186,14 9.35,13.7893105 9.35,13.5294118 L9.35,11.5877565 Z" fill="#000000" opacity="0.3" mask="url(#mask-2)"></path>
    </g>
</svg>
